static/images/logo_lw_nl.svg

<?xml version="1.0" encoding="UTF-8"?>
<svg xmlns="http://www.w3.org/2000/svg" xmlns:xlink="http://www.w3.org/1999/xlink" width="121pt" height="22pt" viewBox="0 0 121 22" version="1.1">
<g>
<path fill="#FFFFFF" d="
M25.773,12.922h4.121v1.059h-2.875v2.699h2.32v1.043h-2.32v2.961h2.875v1.055h-4.121Z
M31.535,12.922h1.438l2.781,7.027c-0.094,-0.719,-0.176,-1.559,-0.176,-2.348v-4.68h1.195v8.816h-1.441l-2.805,-7.051c0.105,0.719,0.203,1.574,0.203,2.371v4.68h-1.195Z
M40.641,12.922h1.25l0.719,4.344c0.121,0.703,0.27,2.086,0.352,3.145c0.082,-1.059,0.23,-2.43,0.352,-3.145l0.734,-4.344h1.273l0.734,4.344c0.121,0.703,0.258,2.074,0.34,3.117c0.078,-1.043,0.242,-2.414,0.363,-3.117l0.719,-4.344h1.207l-1.68,8.816h-1.289l-0.719,-4.34c-0.109,-0.652,-0.258,-1.883,-0.34,-2.902c-0.082,1.02,-0.215,2.25,-0.324,2.902l-0.734,4.34h-1.273Z
M49.902,12.922h1.25v5.238h-1.25ZM49.902,21.457v-1.102c0.312,0.191,0.977,0.449,1.805,0.449c1.344,0,1.926,-0.543,1.926,-2.047v-5.836h1.25v5.969c0,1.996,-0.938,3.012,-3.039,3.012c-1.043,0,-1.711,-0.285,-1.941,-0.445
M63.223,17.832v2.879h0.719c0.988,0,1.68,-0.082,1.68,-1.426c0,-1.355,-0.703,-1.453,-1.68,-1.453ZM63.223,13.953v2.879h0.434c0.988,0,1.695,-0.098,1.695,-1.453c0,-1.344,-0.707,-1.426,-1.695,-1.426ZM61.973,12.922h1.723c1.738,0,2.945,0.449,2.945,2.418c0,1.016,-0.406,1.598,-0.992,1.926c0.734,0.281,1.262,0.895,1.262,2.059c0,1.941,-1.191,2.414,-2.93,2.414h-2.008v-8.816
M68.387,12.922h4.125v1.059h-2.875v2.699h2.32v1.043h-2.32v2.961h2.875v1.055h-4.125Z
M73.609,17.332c0,-3.473,0.922,-4.57,3.215,-4.57c0.652,0,1.344,0.176,1.641,0.352v1.152c-0.324,-0.188,-0.949,-0.395,-1.547,-0.395c-1.465,0,-2.02,0.543,-2.02,3.461c0,2.887,0.395,3.484,1.668,3.484c0.395,0,0.719,-0.051,0.965,-0.121v-2.941h-1.305v-1.059h2.551v4.762c-0.258,0.16,-1.289,0.445,-2.195,0.445c-2.391,0,-2.973,-1.246,-2.973,-4.57
M80.621,12.922h4.125v1.059h-2.879v2.699h2.32v1.043h-2.32v2.961h2.879v1.055h-4.125Z
M86.387,12.922h4.121v1.059h-2.875v2.699h2.32v1.043h-2.32v2.961h2.875v1.055h-4.121Z
M93.395,13.98v3.109h0.668c0.977,0,1.625,-0.207,1.625,-1.562c0,-1.344,-0.648,-1.547,-1.625,-1.547ZM92.148,12.922h2.035c1.629,0,2.793,0.609,2.793,2.605c0,1.398,-0.676,2.074,-1.531,2.387l1.871,3.824h-1.422l-1.656,-3.594h-0.844v3.594h-1.246v-8.816
M97.477,12.922h5.062v1.059h-1.914v7.758h-1.246v-7.758h-1.902Z
M103.582,12.922h4.121v1.059h-2.875v2.699h2.32v1.043h-2.32v2.961h2.875v1.055h-4.121Z
M25.773,0.48h3.988v1.059h-2.742v2.699h2.199v1.043h-2.199v4.016h-1.246Z
M31.633,6.246h1.938l-0.367,-1.465c-0.188,-0.734,-0.434,-1.859,-0.582,-2.836c-0.164,0.977,-0.422,2.102,-0.609,2.836ZM31.969,0.48h1.289l2.348,8.816h-1.301l-0.516,-1.992h-2.402l-0.5,1.992h-1.266l2.348,-8.816
M36.242,4.891c0,-3.297,0.719,-4.574,2.859,-4.574c0.652,0,1.238,0.164,1.52,0.328v1.152c-0.324,-0.176,-0.895,-0.352,-1.438,-0.352c-1.285,0,-1.652,0.582,-1.652,3.445c0,2.887,0.391,3.457,1.652,3.457c0.559,0,1.195,-0.191,1.52,-0.379v1.152c-0.285,0.164,-0.961,0.34,-1.57,0.34c-2.32,0.012,-2.891,-1.277,-2.891,-4.57
M41.918,6.641v-6.16h1.246v6.215c0,1.301,0.449,1.68,1.359,1.68c0.906,0,1.355,-0.379,1.355,-1.68v-6.215h1.25v6.16c0,2.008,-0.844,2.82,-2.605,2.82c-1.793,0,-2.605,-0.789,-2.605,-2.82
M49.023,0.48h1.25v7.758h2.738v1.059h-3.988Z
M52.578,0.48h5.059v1.059h-1.914v7.758h-1.246v-7.758h-1.898Z
M58.68,0.48h4.125v1.059h-2.875v2.699h2.316v1.043h-2.316v2.957h2.875v1.059h-4.125Z
M64.445,9.297h1.246v-8.816h-1.246Z
M66.734,0.48h5.059v1.059h-1.91v7.758h-1.246v-7.758h-1.902Z
M75.23,0.48h1.246v7.758h2.742v1.059h-3.988Z
M80.41,0.48h4.125v1.059h-2.879v2.699h2.324v1.043h-2.324v2.957h2.879v1.059h-4.125Z
M85.266,0.48h5.059v1.059h-1.914v7.758h-1.25v-7.758h-1.895Z
M90.891,0.48h5.059v1.059h-1.914v7.758h-1.246v-7.758h-1.898Z
M96.992,0.48h4.125v1.059h-2.875v2.699h2.32v1.043h-2.32v2.957h2.875v1.059h-4.125Z
M104.008,1.539v3.105h0.664c0.973,0,1.625,-0.203,1.625,-1.559c0,-1.344,-0.652,-1.547,-1.625,-1.547ZM102.758,0.48h2.031c1.633,0,2.797,0.609,2.797,2.605c0,1.395,-0.68,2.074,-1.531,2.387l1.871,3.824h-1.422l-1.656,-3.594h-0.84v3.594h-1.25v-8.816
M109.277,0.48h4.125v1.059h-2.875v2.699h2.32v1.043h-2.32v2.957h2.875v1.059h-4.125Z
M115.043,0.48h1.438l2.781,7.027c-0.094,-0.719,-0.176,-1.559,-0.176,-2.348v-4.68h1.191v8.816h-1.434l-2.812,-7.055c0.113,0.723,0.207,1.574,0.207,2.375v4.68h-1.195Z
M58.996,13.832c0.551,-0.004,1.07,0.18,1.309,0.367v-1.125c-0.238,-0.148,-0.824,-0.309,-1.418,-0.309c-1.656,0,-2.566,0.941,-2.566,2.305c0,1.141,0.484,1.688,1.262,2.355l0.707,0.613c0.586,0.492,0.949,0.867,0.949,1.602c0,0.855,-0.566,1.199,-1.414,1.199c-0.648,0,-1.18,-0.184,-1.488,-0.395v1.145c0.27,0.156,0.836,0.316,1.598,0.316c1.652,-0.004,2.562,-0.941,2.562,-2.309c0.004,-1.137,-0.48,-1.688,-1.258,-2.355l-0.707,-0.613c-0.59,-0.5,-0.953,-0.863,-0.949,-1.598c0,-0.863,0.562,-1.199,1.414,-1.199
M11.516,14.531c0.363,-0.211,0.789,-0.332,1.246,-0.332h7.512v-12.473h-7.512c-0.688,0,-1.25,0.559,-1.25,1.246ZM10.266,2.973c0,-0.688,-0.559,-1.246,-1.246,-1.246h-7.512v12.473h7.512c0.453,0,0.879,0.121,1.246,0.332ZM9.02,15.445h-8.758v-14.965h8.758c0.75,0,1.414,0.336,1.871,0.859c0.457,-0.523,1.121,-0.859,1.871,-0.859h8.758v14.965h-8.758c-0.746,0,-1.414,0.328,-1.871,0.844c-0.457,-0.516,-1.125,-0.844,-1.871,-0.844
M9.02,16.691c0.746,0,1.414,0.328,1.871,0.844c0.457,-0.516,1.125,-0.844,1.871,-0.844h8.762l-1.25,1.246l-7.512,0.004c-0.746,0,-1.414,0.324,-1.871,0.84c-0.457,-0.516,-1.125,-0.84,-1.871,-0.84l-7.512,-0.004l-1.246,-1.246Z
M2.754,5.469h6.266v-1.25h-6.266Z
M2.754,7.965h6.266v-1.25h-6.266Z
M2.754,10.457h6.266v-1.25h-6.266Z
"/>
</g>
</svg>

<?xml version="1.0" encoding="UTF-8"?>
<svg xmlns="http://www.w3.org/2000/svg" xmlns:xlink="http://www.w3.org/1999/xlink" width="121pt" height="22pt" viewBox="0 0 121 22" version="1.1">
<g id="surface1">
<path fill="#FFFFFF" d="M25.773,12.922L29.895,12.922L29.895,13.98L27.02,13.98L27.02,16.68L29.34,16.68L29.34,17.723L27.02,17.723L27.02,20.684L29.895,20.684L29.895,21.738L25.773,21.738L25.773,12.922"/>
<path fill="#FFFFFF" d="M31.535,12.922L32.973,12.922L35.754,19.949C35.66,19.23,35.578,18.391,35.578,17.602L35.578,12.922L36.773,12.922L36.773,21.738L35.332,21.738L32.527,14.688C32.633,15.406,32.73,16.262,32.73,17.059L32.73,21.738L31.535,21.738L31.535,12.922"/>
<path fill="#FFFFFF" d="M40.641,12.922L41.891,12.922L42.609,17.266C42.73,17.969,42.879,19.352,42.961,20.41C43.043,19.352,43.191,17.98,43.312,17.266L44.047,12.922L45.32,12.922L46.055,17.266C46.176,17.969,46.312,19.34,46.395,20.383C46.473,19.34,46.637,17.969,46.758,17.266L47.477,12.922L48.684,12.922L47.004,21.738L45.715,21.738L44.996,17.398C44.887,16.746,44.738,15.516,44.656,14.496C44.574,15.516,44.441,16.746,44.332,17.398L43.598,21.738L42.324,21.738L40.641,12.922"/>
<path fill="#FFFFFF" d="M49.902,12.922L51.152,12.922L51.152,18.16L49.902,18.16Z M49.902,21.457L49.902,20.355C50.215,20.547,50.879,20.805,51.707,20.805C53.051,20.805,53.633,20.262,53.633,18.758L53.633,12.922L54.883,12.922L54.883,18.891C54.883,20.887,53.945,21.902,51.844,21.902C50.801,21.902,50.133,21.617,49.902,21.457"/>
<path fill="#FFFFFF" d="M63.223,17.832L63.223,20.711L63.941,20.711C64.93,20.711,65.621,20.629,65.621,19.285C65.621,17.93,64.918,17.832,63.941,17.832Z M63.223,13.953L63.223,16.832L63.656,16.832C64.645,16.832,65.352,16.734,65.352,15.379C65.352,14.035,64.645,13.953,63.656,13.953Z M61.973,12.922L63.695,12.922C65.434,12.922,66.641,13.371,66.641,15.34C66.641,16.355,66.234,16.938,65.648,17.266C66.383,17.547,66.91,18.16,66.91,19.324C66.91,21.266,65.719,21.738,63.98,21.738L61.973,21.738L61.973,12.922"/>
<path fill="#FFFFFF" d="M68.387,12.922L72.512,12.922L72.512,13.98L69.637,13.98L69.637,16.68L71.957,16.68L71.957,17.723L69.637,17.723L69.637,20.684L72.512,20.684L72.512,21.738L68.387,21.738L68.387,12.922"/>
<path fill="#FFFFFF" d="M73.609,17.332C73.609,13.859,74.531,12.762,76.824,12.762C77.477,12.762,78.168,12.938,78.465,13.113L78.465,14.266C78.141,14.078,77.516,13.871,76.918,13.871C75.453,13.871,74.898,14.414,74.898,17.332C74.898,20.219,75.293,20.816,76.566,20.816C76.961,20.816,77.285,20.766,77.531,20.695L77.531,17.754L76.227,17.754L76.227,16.695L78.777,16.695L78.777,21.457C78.52,21.617,77.488,21.902,76.582,21.902C74.191,21.902,73.609,20.656,73.609,17.332"/>
<path fill="#FFFFFF" d="M80.621,12.922L84.746,12.922L84.746,13.98L81.867,13.98L81.867,16.68L84.188,16.68L84.188,17.723L81.867,17.723L81.867,20.684L84.746,20.684L84.746,21.738L80.621,21.738L80.621,12.922"/>
<path fill="#FFFFFF" d="M86.387,12.922L90.508,12.922L90.508,13.98L87.633,13.98L87.633,16.68L89.953,16.68L89.953,17.723L87.633,17.723L87.633,20.684L90.508,20.684L90.508,21.738L86.387,21.738L86.387,12.922"/>
<path fill="#FFFFFF" d="M93.395,13.98L93.395,17.09L94.062,17.09C95.039,17.09,95.688,16.883,95.688,15.527C95.688,14.184,95.039,13.98,94.062,13.98Z M92.148,12.922L94.184,12.922C95.812,12.922,96.977,13.531,96.977,15.527C96.977,16.926,96.301,17.602,95.445,17.914L97.316,21.738L95.895,21.738L94.238,18.145L93.395,18.145L93.395,21.738L92.148,21.738L92.148,12.922"/>
<path fill="#FFFFFF" d="M97.477,12.922L102.539,12.922L102.539,13.98L100.625,13.98L100.625,21.738L99.379,21.738L99.379,13.98L97.477,13.98L97.477,12.922"/>
<path fill="#FFFFFF" d="M103.582,12.922L107.703,12.922L107.703,13.98L104.828,13.98L104.828,16.68L107.148,16.68L107.148,17.723L104.828,17.723L104.828,20.684L107.703,20.684L107.703,21.738L103.582,21.738L103.582,12.922"/>
<path fill="#FFFFFF" d="M25.773,0.48L29.762,0.48L29.762,1.539L27.02,1.539L27.02,4.238L29.219,4.238L29.219,5.281L27.02,5.281L27.02,9.297L25.773,9.297L25.773,0.48"/>
<path fill="#FFFFFF" d="M31.633,6.246L33.57,6.246L33.203,4.781C33.016,4.047,32.77,2.922,32.621,1.945C32.457,2.922,32.199,4.047,32.012,4.781Z M31.969,0.48L33.258,0.48L35.605,9.297L34.305,9.297L33.789,7.305L31.387,7.305L30.887,9.297L29.621,9.297L31.969,0.48"/>
<path fill="#FFFFFF" d="M36.242,4.891C36.242,1.594,36.961,0.316,39.102,0.316C39.754,0.316,40.34,0.48,40.621,0.645L40.621,1.797C40.297,1.621,39.727,1.445,39.184,1.445C37.898,1.445,37.531,2.027,37.531,4.891C37.531,7.777,37.922,8.348,39.184,8.348C39.742,8.348,40.379,8.156,40.703,7.969L40.703,9.121C40.418,9.285,39.742,9.461,39.133,9.461C36.812,9.473,36.242,8.184,36.242,4.891"/>
<path fill="#FFFFFF" d="M41.918,6.641L41.918,0.48L43.164,0.48L43.164,6.695C43.164,7.996,43.613,8.375,44.523,8.375C45.43,8.375,45.879,7.996,45.879,6.695L45.879,0.48L47.129,0.48L47.129,6.641C47.129,8.648,46.285,9.461,44.523,9.461C42.73,9.461,41.918,8.672,41.918,6.641"/>
<path fill="#FFFFFF" d="M49.023,0.48L50.273,0.48L50.273,8.238L53.012,8.238L53.012,9.297L49.023,9.297L49.023,0.48"/>
<path fill="#FFFFFF" d="M52.578,0.48L57.637,0.48L57.637,1.539L55.723,1.539L55.723,9.297L54.477,9.297L54.477,1.539L52.578,1.539L52.578,0.48"/>
<path fill="#FFFFFF" d="M58.68,0.48L62.805,0.48L62.805,1.539L59.93,1.539L59.93,4.238L62.246,4.238L62.246,5.281L59.93,5.281L59.93,8.238L62.805,8.238L62.805,9.297L58.68,9.297L58.68,0.48"/>
<path fill="#FFFFFF" d="M64.445,9.297L65.691,9.297L65.691,0.48L64.445,0.48Z M64.445,9.297"/>
<path fill="#FFFFFF" d="M66.734,0.48L71.793,0.48L71.793,1.539L69.883,1.539L69.883,9.297L68.637,9.297L68.637,1.539L66.734,1.539L66.734,0.48"/>
<path fill="#FFFFFF" d="M75.23,0.48L76.477,0.48L76.477,8.238L79.219,8.238L79.219,9.297L75.23,9.297L75.23,0.48"/>
<path fill="#FFFFFF" d="M80.41,0.48L84.535,0.48L84.535,1.539L81.656,1.539L81.656,4.238L83.98,4.238L83.98,5.281L81.656,5.281L81.656,8.238L84.535,8.238L84.535,9.297L80.41,9.297L80.41,0.48"/>
<path fill="#FFFFFF" d="M85.266,0.48L90.324,0.48L90.324,1.539L88.41,1.539L88.41,9.297L87.16,9.297L87.16,1.539L85.266,1.539L85.266,0.48"/>
<path fill="#FFFFFF" d="M90.891,0.48L95.949,0.48L95.949,1.539L94.035,1.539L94.035,9.297L92.789,9.297L92.789,1.539L90.891,1.539L90.891,0.48"/>
<path fill="#FFFFFF" d="M96.992,0.48L101.117,0.48L101.117,1.539L98.242,1.539L98.242,4.238L100.562,4.238L100.562,5.281L98.242,5.281L98.242,8.238L101.117,8.238L101.117,9.297L96.992,9.297L96.992,0.48"/>
<path fill="#FFFFFF" d="M104.008,1.539L104.008,4.645L104.672,4.645C105.645,4.645,106.297,4.441,106.297,3.086C106.297,1.742,105.645,1.539,104.672,1.539Z M102.758,0.48L104.789,0.48C106.422,0.48,107.586,1.09,107.586,3.086C107.586,4.48,106.906,5.16,106.055,5.473L107.926,9.297L106.504,9.297L104.848,5.703L104.008,5.703L104.008,9.297L102.758,9.297L102.758,0.48"/>
<path fill="#FFFFFF" d="M109.277,0.48L113.402,0.48L113.402,1.539L110.527,1.539L110.527,4.238L112.848,4.238L112.848,5.281L110.527,5.281L110.527,8.238L113.402,8.238L113.402,9.297L109.277,9.297L109.277,0.48"/>
<path fill="#FFFFFF" d="M115.043,0.48L116.48,0.48L119.262,7.508C119.168,6.789,119.086,5.949,119.086,5.16L119.086,0.48L120.277,0.48L120.277,9.297L118.844,9.297L116.031,2.242C116.145,2.965,116.238,3.816,116.238,4.617L116.238,9.297L115.043,9.297L115.043,0.48"/>
<path fill="#FFFFFF" d="M58.996,13.832C59.547,13.828,60.066,14.012,60.305,14.199L60.305,13.074C60.066,12.926,59.48,12.766,58.887,12.766C57.23,12.766,56.32,13.707,56.32,15.07C56.32,16.211,56.805,16.758,57.582,17.426L58.289,18.039C58.875,18.531,59.238,18.906,59.238,19.641C59.238,20.496,58.672,20.84,57.824,20.84C57.176,20.84,56.645,20.656,56.336,20.445L56.336,21.59C56.605,21.746,57.172,21.906,57.934,21.906C59.586,21.902,60.496,20.965,60.496,19.598C60.5,18.461,60.016,17.91,59.238,17.242L58.531,16.629C57.941,16.129,57.578,15.766,57.582,15.031C57.582,14.168,58.145,13.832,58.996,13.832"/>
<path fill="#FFFFFF" d="M11.516,14.531C11.879,14.32,12.305,14.199,12.762,14.199L20.273,14.199L20.273,1.727L12.762,1.727C12.074,1.727,11.512,2.285,11.512,2.973Z M10.266,2.973C10.266,2.285,9.707,1.727,9.02,1.727L1.508,1.727L1.508,14.199L9.02,14.199C9.473,14.199,9.898,14.32,10.266,14.531Z M9.02,15.445L0.262,15.445L0.262,0.48L9.02,0.48C9.77,0.48,10.434,0.816,10.891,1.34C11.348,0.816,12.012,0.48,12.762,0.48L21.52,0.48L21.52,15.445L12.762,15.445C12.016,15.445,11.348,15.773,10.891,16.289C10.434,15.773,9.766,15.445,9.02,15.445"/>
<path fill="#FFFFFF" d="M9.02,16.691C9.766,16.691,10.434,17.02,10.891,17.535C11.348,17.02,12.016,16.691,12.762,16.691L21.523,16.691L20.273,17.938L12.762,17.941C12.016,17.941,11.348,18.266,10.891,18.781C10.434,18.266,9.766,17.941,9.02,17.941L1.508,17.938L0.262,16.691L9.02,16.691"/>
<path fill="#FFFFFF" d="M2.754,5.469L9.02,5.469L9.02,4.219L2.754,4.219Z M2.754,5.469"/>
<path fill="#FFFFFF" d="M2.754,7.965L9.02,7.965L9.02,6.715L2.754,6.715Z M2.754,7.965"/>
<path fill="#FFFFFF" d="M2.754,10.457L9.02,10.457L9.02,9.207L2.754,9.207Z M2.754,10.457"/>
</g>
</svg>
